!!!COM: Schubert, Franz
!!!CNT: Deutscher
!!!TXO: Deutsch
!!!OTL: "Der greise Kopf"
!!!OPR: Winterreise
!!!LYR: Mu2ller, Wilhelm
!!!OPS: Opus 89
!!!ONM: No. 14
!!!ODT: 1827/
!!NB: Vocal melody only encoded.
**kern	**silbe
*clefG2	*
*k[b-e-a-]	*
*M3/4	*
*MM[langsam]	*
=4	=4
4r	.
4r	.
8r	.
{8c	{Der
=5	=5
8.c	Reif
16e-	hat
4.g	ei-
8a-	-nen
=6	=6
8.g	wei-
16bn	-ssen
4.d}	Schein}
{8b-	{mir
=7	=7
[4ff	u2-
12ff]	|
12dd	|
12bn	-ber's
12a-M	Haupt
12g	|
12f	ge-
=8	=8
8.e-	-streu-
16d	|
4c}	-et;}
4r	.
=10	=10
4r	.
4r	.
8r	.
{8g	{da
=11	=11
4.g	glaubt'
8g	ich
8g	schon
8g#	ein
=12	=12
8.bn	Greis
16an	zu
4an}	sein,}
8r	.
{8ee-	{und
=13	=13
[4een	hab'
12een]	|
12dd	|
12cc	mich
12cc	sehr
12bn	|
12an	ge-
=14	=14
(8an	-freu-
8g)	|
4g}	-et.}
4r	.
=16	=16
4r	.
4r	.
8r	.
{8g	{Doch
=17	=17
4.g	bald
8g	ist
8g	er
8g	hin-
=18	=18
8.e-	-weg-
16f	-get
4e-}	haut,}
8r	.
{8e-	{hab'
=19	=19
4.e-	wie-
8g	-der
12b-	schwar-
12ee-	|
12dd-	-ze
=20	=20
4bn	Haa-
4cc	-re,
8r	.
8cc	dass
=21	=21
8.cc	mir's
16cc	vor
8.dd-	mei-
16dd-	-ner
8.ddn	Jug-
16ddn	-end
=22	=22
2ee-}	graut}
4r	.
=24	=24
4r	.
4r	.
8r	.
{8b-	{wie
=25	=25
4.cc	weit
8b-	noch
8.a-	bis
16g	zur
=26	=26
(16g	Bah-
16f#)	|
8f#}	-re!}
4r	.
8r	.
{8g	{wie
=27	=27
4.a-	weit
8g	noch
8.f	bis
16e-	zur
=28	=28
(16e-	Bah-
16d)	|
8d}	-re!}
4r	.
4r	.
=29	=29
4r	.
4r	.
8r	.
{8c	{Vom
=30	=30
8.c	A-
16e-	-bend-
4.g	-roth
8a-	zum
=31	=31
8.g	Mor-
16bn	-gen
4.dd}	licht}
{8b-	{ward
=32	=32
[4ff	man-
12ff]	|
12dd	|
12bn	-cher
12a-M	Kopf
12g	|
12f	zum
=33	=33
8.e-M	Grei-
16d	|
4c}	-se.}
4r	.
=35	=35
4r	.
4r	.
8r	.
{8g	{Wer
=36	=36
4.cc	glaubt's?
8g	und
8g	mei-
8g#	-ner
=37	=37
8.bn	ward
16an	es
4an}	nicht}
8r	.
{8an	{auf
=38	=38
([4ff	die-
12ff]	|
12een)	|
12dd	-ser
12dd	gan-
12cc	|
12bn	-zen
=39	=39
4dd	Rei-
4cc}	-se,}
8r	.
{8cc	{auf
=40	=40
([4cc	die-
12cc]	|
12a-)	|
12f	-ser
12cc	gan-
12a-	|
12f	-zen
=41	=41
2.g	Rei-
=42	=42
4c}	-se!}
4r	.
4r	.
*-	*-
